X:1
T: He's Aye Kissing Me
C:
R:Strathspey
Q: 128
K:D
M:4/4
L:1/16
|:D2|A4 B4 A2D2 D2d2|A2F2 E3D E6 D2|F2A2 G2B2 A3F D2dB|A2F2 E3F D6D2|
A4B4 A2D2 D2d2|A2F2 E3D E6D2|F2A2 G2B2 A3F D2dB|A2F2 E3F D6Bc|
d3c B2A2 B3A F3c|d2c2 B2A2 B4 F2c2|d2c2 B2A2 B3c d3B|A2F2 G2E2 D4 DEFG|
A4B4 A3F D2d2|A2F2 E2D2 E6D2|F2A2 A2A2 A2g2 f2e2|d3B A2F2 D6:|
